X: 3
T: The Rake
C: Robert White
R: hornpipe
M: 4/4
L: 1/8
K: Gmaj
(3d^c=c   | BGDG BGdB        | (3gfg (3agf gdBG      | FEFG AB (3cBA  | d^cde fd=cA  |
            BGDG BGdB        | (3gfg (3agf gdBG      | (3Bcd gd cAFG  | AGGF G2     :|
     AG   | F2D2 D2dc        | BGGF G2AG             |  F2D2 d^ced    | fed^c d2     |
     AG   | F2D2 D2dc        | BGGF G2AG             | FAdf ed^ce     | d4 c4       ||
            BGDG BGdB        | (3gfg (3agf gdBG      | FEFG AB (3cBA  | d^cde fd=cA  |
BGDG BGdB | (3gfg (3agf gdBG | (3Bcd gd cAFG         | AGGF G2        |]



